actions/16/text-flow-into-frame.svg

<svg xmlns="http://www.w3.org/2000/svg" viewBox="0 0 16 16">
  <defs id="defs3051">
<style type="text/css" id="current-color-scheme">.ColorScheme-Text {color:#fcfcfc;}</style>
  </defs>
  <path 
     style="fill:currentColor;fill-opacity:1;stroke:none" 
     d="m 2,4 c 0,2 0,6 0,8 0,2 2,2 2,2 h 6 V 13 H 4 C 4,13 3,13 3,12 3,11 3,5 3,4 3,3 4,3 4,3 h 8 c 0,0 1,0 1,1 0,1 0,3 0,3 h 1 C 14,7 14,6 14,4 14,2 12,2 12,2 H 4 C 4,2 2,2 2,4 Z m 2,0 v 1 h 8 V 4 Z M 4,7 V 8 H 8 V 7 Z m 0,3 v 1 h 6 v -1 z"
     class="ColorScheme-Text"/>
  <path
     style="fill:#1d99f3"
     d="m 9,7 0,1 1.5,0 c 1.385,0 2.5,1.115 2.5,2.5 0,0.819 -0.396,1.545 -1,2 l 0,-1.5 -1,0 0,3 3,0 0,-1 -1.063,0 C 13.595,12.368 14,11.49 14,10.5 14,8.561 12.439,7 10.5,7 L 10,7 Z" />
</svg>

<svg xmlns="http://www.w3.org/2000/svg" viewBox="0 0 16 16">
  <defs id="defs3051">
    <style type="text/css" id="current-color-scheme">
      .ColorScheme-Text {
        color:#eff0f1;
      }
      </style>
  </defs>
  <path 
     style="fill:currentColor;fill-opacity:1;stroke:none" 
     d="M 2 2 L 2 14 L 10 14 L 10 13 L 3 13 L 3 3 L 13 3 L 13 7 L 14 7 L 14 2 L 2 2 z M 4 4 L 4 5 L 12 5 L 12 4 L 4 4 z M 4 7 L 4 8 L 8 8 L 8 7 L 4 7 z M 4 10 L 4 11 L 10 11 L 10 10 L 4 10 z "
     class="ColorScheme-Text"/>
  <path
     style="fill:#1d99f3"
     d="m 9,7 0,1 1.5,0 c 1.385,0 2.5,1.115 2.5,2.5 0,0.819 -0.396,1.545 -1,2 l 0,-1.5 -1,0 0,3 3,0 0,-1 -1.063,0 C 13.595,12.368 14,11.49 14,10.5 14,8.561 12.439,7 10.5,7 L 10,7 Z" />
</svg>
